svgs/thin/feather.svg

<svg xmlns="http://www.w3.org/2000/svg" viewBox="0 0 512 512"><!--! Font Awesome Pro 6.3.0 by @fontawesome - https://fontawesome.com License - https://fontawesome.com/license (Commercial License) Copyright 2023 Fonticons, Inc. --><path d="M467.1 44.85C438.3 16.11 401.7 0 361.7 0c-46.67 0-97.7 21.82-146.5 70.62L129.5 156.2c-60.49 60.37-70.37 150.7-63.62 211.1c.2891 2.674 .8223 5.08 1.174 7.631c2.076 15.06 8.48 28.96 18.04 40.62l-82.75 82.75c-3.125 3.125-3.125 8.188 0 11.31C3.906 511.2 5.938 512 8 512s4.094-.7813 5.656-2.344l82.73-82.73c11.69 9.658 25.64 16.14 40.78 18.22c2.457 .3379 4.969 .6484 7.537 .9297c10.42 1.164 21.68 1.881 33.58 1.881c57.04 0 127.5-15.39 177.5-65.45l85.62-85.74C531.9 206.2 529.5 107.4 467.1 44.85zM82.9 372.8c-.3301-2.398-2.072-17.52-2.072-17.52c-4.355-59.42 9.131-136.1 59.98-187.7l85.74-85.62C269.7 38.8 316.5 16 361.9 16c35.25 0 67.77 13.85 94.01 40.02C501.8 102 507.8 163.6 476.2 224h-176.9l50.34-50.34c3.125-3.125 3.125-8.188 0-11.31s-8.188-3.125-11.31 0l-241.5 241.5C89.74 394.7 84.49 384.4 82.9 372.8zM344.4 371.2c-52.75 52.86-126.7 60.75-166.2 60.75c-8.785 0-17.49-.3828-25.96-1.143c0 0-10.66-1.201-12.97-1.518c-11.65-1.605-22.02-6.912-31.2-14.14L187.3 336h192.3L344.4 371.2zM430.1 285.5L395.6 320H203.3l80-80h182.9C456.4 255.4 444.8 270.7 430.1 285.5z"/></svg>

<svg xmlns="http://www.w3.org/2000/svg" viewBox="0 0 512 512"><!-- Font Awesome Pro 6.0.0-alpha2 by @fontawesome - https://fontawesome.com License - https://fontawesome.com/license (Commercial License) --><path d="M467.277 44.723C438.459 15.982 401.869 0 361.941 0C315.268 0 264.025 21.822 215.232 70.617C136.615 149.111 154.238 131.488 129.49 156.234C68.996 216.605 59.123 306.973 65.873 367.344L66.084 367.133C66.373 369.807 66.695 372.424 67.047 374.975C69.123 390.039 75.527 403.934 85.09 415.598L2.344 498.344C-0.781 501.469 -0.781 506.531 2.344 509.656C3.906 511.219 5.937 512 8 512S12.094 511.219 13.656 509.656L96.385 426.928C108.072 436.586 122.027 443.066 137.168 445.15C139.625 445.488 142.137 445.799 144.705 446.08L144.656 446.127C155.072 447.291 166.389 447.961 178.283 447.961C235.326 447.961 305.811 432.566 355.766 382.51C380.512 357.762 362.889 375.385 441.383 296.768C531.92 206.234 529.613 107.229 467.277 44.723ZM82.896 372.789C82.566 370.391 82.264 367.928 81.992 365.414L80.824 355.27C76.469 295.846 89.955 218.293 140.803 167.549L167.615 140.762L226.547 81.932C269.678 38.799 316.496 16 361.939 16C397.187 16 429.705 29.85 455.949 56.021C501.844 102.041 507.848 163.607 476.176 224H299.313L349.656 173.656C352.781 170.531 352.781 165.469 349.656 162.344S341.469 159.219 338.344 162.344L96.865 403.822C89.742 394.684 84.492 384.373 82.896 372.789ZM344.441 371.207C291.687 424.068 217.695 431.961 178.283 431.961C169.498 431.961 160.791 431.578 152.318 430.818L146.447 430.176C144.027 429.91 141.662 429.617 139.35 429.301C127.701 427.695 117.328 422.389 108.148 415.164L187.312 336H379.609L371.238 344.385L344.441 371.207ZM430.061 285.463L395.582 320H203.312L283.312 240H466.207C456.361 255.404 444.832 270.691 430.061 285.463Z"/></svg>
